X:1
T:Ze Huilt Maar Ze Lacht
T:Ze Huilt Maar Ze Lacht
T: Maan de Steenwinkel, and others
T:Arr.: Jan Wijnholds
T:Album: Onverstaanbaar - Maan
C:Maan
Z:Jan Wijnholds
%%score { 1 | 2 }
L:1/8
Q:1/4=78
M:4/4
K:Ab
V:1 treble nm="Piano" snm="Pno."
V:2 bass 
V:1
"^Intro, 0.04" z8 | z8 | z8 | z4 z2 z3/2 A/ || %4
w: |||Ze|
"^Verse 1, 0.16" c/B/A/c/- c/B/A/c/- c/B/A/c/- c/B/A/c/- | cA/c/- c/B/A/c/- c/B/A/c/- cc/d/- | %6
w: zit hier al- leen * in de trein * en ze duikt * in haar jas|* En kijkt * uit het raam * en ze vraagt * zich af|
 d>d- d/c/B/d/- d/c/B/d/- dc/d/- | dc/d/- d/c/B/d/- d/c/B/d/- d/d/c/c/- | %8
w: * Hoe * zou het voe- * len je- zelf * te zijn|* Want soms * doet het pijn * als ze huilt * maar ze lacht|
 c z z2 z B/d/- d/d/c/c/- | c z z2 z2 z3/2 A/ || %10
w: * Ze huilt * maar ze lacht|* Ze|
"^Verse 2, 0.35" c/B/A/c/- c/B/A/c/- c/B/A/c/- c/B/A/c/- | c/B/A/c/- c/B/A/c/- c/B/A/c/- cc/d/- | %12
w: loopt door een we- * reld die niet * aar- dig voelt * On- be- doeld|* zegt ze din- * gen die ie- * der- een al- * tijd zegt|
 dc/d/- d/c/B/d/- d>d- d/c/B/d/- | d/c/B/d/- d/c/B/d/- d2- d/d/c/c/- | c z z2 z B/d/- d/d/c/c/- | %15
w: * Want nooit * gaat het slecht, * al- * tijd o- ke|* En ze lult * met ze mee, * * en ze lacht|* Ze huilt * maar ze lacht|
 c z z2 z2 z c ||"^Chorus, 0.54" d4 f2 a2 | d4- d>d e>d | c2 z2 z4 | z4 z2 z c || d4 f2 a2 | %21
w: * En|nu- u- u-|u, * ze laat het|los|En|nu- u- u-|
 d4- d>d e>d | c2 z2 z4 | z4 z2 z3/2 A/ || %24
w: u, * ze laat het|los|Ze|
"^Verse 3, 1.18" c/B/A/c/- c/B/A/c/- c/B/A/c/- c/B/A/c/- | %25
w: voelt zich al- leen * als ze loopt * in de stad * En ze kijkt|
 c/B/A/c/- c/B/A/c/- c/B/A/c/- c/B/c/d/- | d/c/B/d/- d/c/B/d/- d/c/B/d/- d/c/B/d/- | %27
w: * in het raam, * ziet een an- * der daar staan? * En ze weet|* wie het is, * maar ze wil * haar niet zijn * En gaat door|
 d/c/B/d/- d4- d/d/c/c/- | c z z2 z B/d/- d/d/c/c/- | c z z2 z4 || %30
w: * met de schijn * * En ze lacht|* Ze huilt * maar ze lacht||
"^Verse 4, 1.37" c/B/A/c/- c/B/A/c/- c/B/A/c/- c/B/A/c/- | c/B/A/c/- c/B/A/c/- c/B/A/c/- c/ed/- | %32
w: Wat als ze mor- * gen be- sluit * niet te schui- * len Haar be-|* te- re ik * voor haar wa- * re ge- zicht * te rui-|
 dd d/c/B/d/- d/c/B/d/- d/c/B/d/- | d/c/B/d/- d/c/B/d/- d/c/ z z/ d/c/c/- | %34
w: * len Zul- len de vrien- * den die zij * wil ver- trou-|* wen Nog steeds * van haar hou- * den? Als ze huilt,|
 c z z2 z/ B/c/d/- d/d/c/c/- | c z z2 z2 z c ||"^Chorus, 1.55" d4 f2 a2 | d4- d>d e>d | c2 z2 z4 | %39
w: * als ze huilt * en niet lacht|* En|nu- u- u-|u, * ze laat het|los|
 z4 z2 z c | d4 f2 a2- | a4- a>a b>a ||"^Bridge, 2.13" a2 z2 z3/2 a/ b>c' | c'2 z2 z3/2 c'/ d'>c' | %44
w: En|nu- u- u|* * ze laat het|los ze laat het|los ze laat het|
 c'2 z2 z2 d'2 | c'6 e'2- | e'2- e'>d'- d'3 c'- | c'4- c'>c' d'>c' | c'2 z2 z4 | z4 z2 z z/ A/ || %50
w: los O-|oh, o-|* * o- * oh|* * ze laat het|los|Ik|
"^Verse 5, 2.38" c/B/A/c/- c/B/A/c/- c/B/A/c/- c/B/A/c/- | cA/c/- c/B/A/c/- c/B/A/c/- cc/B/- | %52
w: zit hier al- leen * in de trein * en ik duik * in mijn jas|* En kijk * uit het raam * en ik vraag * me af|
 B2 B/A/F/B/- B/A/F/B/- BA/A/- | A>A B/A/A/A/- A/F/A/A/- A2 | z4 z2 z/ B/A/A/- || %55
w: * Hoe zou het voe- * len me- zelf * te zijn?|* Want soms doet het pijn * als ik huil *|Maar ik lach|
"^Outro, 2.53" A z z2 z4 | z8 | z8 | z8 |] %59
w: ||||
V:2
"Ab" A,,A,,/!>!A,/- A,/E,/A,,/!>!A,/- A,/E,/A,,/!>!A,/- A,/E,/A,,/E,/ | %1
 A,,/E,/A,,/!>!A,/- A,/E,/A,,/!>!A,/- A,/E,/A,,/!>!A,/- A,/E,/A,,/E,/ | %2
 A,,/E,/A,,/!>!A,/- A,/E,/A,,/!>!A,/- A,/E,/A,,/!>!A,/- A,/E,/A,,/E,/ | %3
 A,,/E,/A,,/!>!A,/- A,/E,/A,, !arpeggio!!>!!fermata![A,,E,A,]4 || %4
"Ab" A,,A,,/!>!A,/- A,/E,/A,,/!>!A,/- A,/E,/A,,/!>!A,/- A,/E,/A,,/E,/ | %5
 A,,/E,/A,,/!>!A,/- A,/E,/A,,/!>!A,/- A,/E,/A,,/!>!A,/- A,/E,/A,, | %6
"Bbm" B,,B,,/!>!B,/- B,/F,/B,,/!>!B,/- B,/F,/B,,/!>!B,/- B,/F,/B,, | %7
"Db" D,D,/!>!D/- D/A,/D,/!>!D/- D/A,/D,/!>!D/- D/A,/D, | %8
"Ab" A,,/E,/A,,/!>!A,/- A,/E,/A,,/!>!A,/- A,/E,/A,,/!>!A,/- A,/E,/A,,/E,/ | %9
 A,,/E,/A,,/!>!A,/- A,/E,/A,,/!>!A,/- A,4 || %10
"Ab" A,,A,,/!>!B,/- B,/A,/E,/!>!B,/- B,/A,/E,/!>!B,/- B,/A,/E, | %11
 A,,A,,/!>!B,/- B,/A,/E,/!>!B,/- B,/A,/E,/!>!B,/- B,/A,/E, | %12
"Bbm" B,,B,,/!>!D/- D/B,/F,/!>!D/- D/B,/F,/!>!D/- D/B,/F, | %13
"Db" D,D,/!>!C/- C/A,/D,/!>!C/- C/A,/D,/!>!C/- C/A,/D, | %14
"Ab" A,,A,,/!>!B,/- B,/A,/E,/!>!B,/- B,/A,/E,/!>!B,/- B,/A,/E, | %15
 A,,A,,/!>!B,/- B,/A,/E,/!>!B,/- B,/A,/E,/!>!B,/- B,/A,/E, || %16
"Bbm" B,,B,,/!>!D/- D/B,/F,/!>!D/- D/B,/F,/!>!D/- D/B,/F, | %17
"Db" D,D,/!>!C/- C/A,/D,/!>!C/- C/A,/D,/!>!C/- C/A,/D, | %18
"Ab" A,,A,,/!>!B,/- B,/A,/E,/!>!B,/- B,/A,/E,/!>!B,/- B,/A,/E, | %19
 A,,A,,/!>!B,/- B,/A,/E,/!>!B,/- B,/A,/E,/!>!B,/- B,/A,/E, || %20
"Bbm" B,,B,,/!>!D/- D/B,/F,/!>!D/- D/B,/F,/!>!D/- D/B,/F, |"Db" C8 | %22
"Ab" A,,A,,/!>!B,/- B,/A,/E,/!>!C/- C/A,/E,/!>!B,/- B,/A,/E, | A,,A,,/!>!B,/- B,/A,/E,/!>!C/- C4 || %24
"Ab" A,,A,,/!>!B,/- B,/A,/E,/!>!C/- C/A,/E,/!>!C/- C/A,/E, | %25
 A,,A,,/!>!B,/- B,/A,/E,/!>!C/- C/A,/E,/!>!C/- C/A,/E, | %26
"Bbm" B,,B,,/!>!D/- D/B,/F,/!>!C/- C/B,/F,/!>!D/- D/B,/F, | %27
"Db" D,D,/!>!C/- C/A,/D,/!>!C/- C/A,/D,/!>!C/- C/A,/D, | %28
"Ab" A,,A,,/!>!B,/- B,/A,/E,/!>!C/- C/A,/E,/!>!B,/- B,/A,/E, | %29
 A,,A,,/!>!B,/- B,/A,/E,/!>!C/- C/A,/E,/!>!C/- C/A,/E, || %30
"Ab" A,,A,,/!>!B,/- B,/A,/E,/!>!C/- C/A,/E,/!>!C/- C/A,/E, | %31
 A,,A,,/!>!B,/- B,/A,/E,/!>!C/- C/A,/E,/!>!C/- C/A,/E, | %32
"Bbm" B,,B,,/!>!D/- D/B,/F,/!>!C/- C/B,/F,/!>!D/- D/B,/F, | %33
"Db" D,D,/!>!C/- C/A,/D,/!>!C/- C/A,/D,/!>!C/- C/A,/D, | %34
"Ab" A,,A,,/!>!B,/- B,/A,/E,/!>!C/- C/A,/E,/!>!C/- C/A,/E, | %35
 A,,A,,/!>!B,/- B,/A,/E,/!>!C/- C/A,/E,/!>!B,/- B,/A,/E, || %36
"Bbm" B,,B,,/!>!D/- D/B,/F,/!>!D/- D/B,/F,/!>!D/- D/B,/F, | %37
"Db" D,D,/!>!C/- C/A,/D,/!>!C/- C/A,/D,/!>!C/- C/A,/D, | %38
"Ab" A,,A,,/!>!B,/- B,/A,/E,/!>!C/- C/A,/E,/!>!B,/- B,/A,/E, | %39
 A,,A,,/!>!B,/- B,/A,/E,/!>!C/- C/A,/E,/!>!B,/- B,/A,/E, | %40
"Bbm" B,,B,,/!>!D/- D/B,/F,/!>!D/- D/B,/F,/!>!D/- D/B,/F, |"Db" C8 || z8 | z8 | z8 | z8 | %46
"Bbm" B,,B,,/!>!D/- D/F,/B,/!>!D/- D/F,/B,/!>!D/- D/B,/F, |"Db" D,D,/!>!C/- C/A,/F,/D,/- D,4 | %48
"Ab" A,,A,,/!>!A,/- A,/E,/A,,/!>!A,/- A,/E,/A,,/!>!A,/- A,/E,/A,, | %49
 A,,A,,/!>!A,/- A,/E,/A,, E,2- E,A,, || %50
"Ab" A,,A,,/!>!B,/- B,/A,/E,/!>!B,/- B,/A,/E,/!>!B,/- B,/A,/E, | %51
 A,,A,,/!>!B,/- B,/A,/E,/!>!B,/- B,/A,/E,/!>!B,/- B,/A,/E, | %52
"Bbm" B,,B,,/!>!D/- D/B,/F,/!>!D/- D/B,/F,/!>!D/- D/B,/F, |"Db" D,D,/!>!C/- C/A,/F,/D,/- D,4 | %54
 z8 ||"Ab" A,,A,,/!>!B,/- B,/A,/E,/!>!B,/- B,/A,/E,/!>!B,/- B,/A,/E, | %56
 A,,A,,/!>!B,/- B,/A,/E,/!>!B,/- B,/A,/E,/!>!C/- C/A,/E, | %57
 A,,A,,/!>!B,/- B,/A,/E,/!>!B,/- B,/A,/E,/!>!B,/- B,/A,/E, | !arpeggio!!fermata![A,,E,A,C]8 |] %59

